X:55
T:KISTSLP- We're a' Kiss'd Sleeping
S:Oswald's CPC, bk. 11
Q:1/4=30
L:1/4
M:2/4
K:B phrygian
(B/4A/4)|GD|^F/A(B/4A/4)|GD|G/gd/4e/4|^f/f/ g/4f/4e/4d/4|\
c/4_B/4A/4G/4 =F/(e/4^f/4)|g/(f/4e/4) d/4c/4B/4A/4|G/B:|\
b/a/|gd3/4e/4|=f/ a(b/4a/4)|gd/e/4=f/4|g/4f/4g/4a/4 g/d/4e/4|\
=f/f/ g/4f/4e/4d/4|c/4=B/4A/4G/4 F/(e/4^f/4)|\
g/(f/4e/4) (d/4c/4)(B/4A/4)|G/B:|]

